X:6085
T:Snder Ud
M:3/4
O:Denmark
R:Polska
Z:Richard Robinson 
%%TUNEURL: http://www.leeds.ac.uk/music/Info/RRTuneBk/gettune/000008f9.html
%%ID:000008f9
K:D
A2 FG Ac | df ec dB | A2 FG Ad | c2 d4 ::\
df ge fd | cd (3efe d2 |
df ge fd | \
cd (3edc (3dcB | A2 FG AB | c2 d4 | \
A2 FG Ad | (3cBc d4 :|
